src/assets/icon-vote.svg

<svg xmlns="http://www.w3.org/2000/svg" width="36" height="36" viewBox="0 0 36 36">
  <g fill="none">
    <g transform="translate(6 4)">
      <rect width="24" height="24" y="2"/>
      <path stroke="currentColor" stroke-linecap="round" stroke-linejoin="round" stroke-width="2" d="M11.663591,10.6387152 C13.0422624,10.007371 14,8.6155313 14,7 C14,4.790861 12.209139,3 10,3 C7.790861,3 6,4.790861 6,7 C6,8.62761784 6.97212179,10.0281845 8.36742292,10.6527574" opacity=".7"/>
      <path stroke="currentColor" stroke-linecap="round" stroke-linejoin="round" stroke-width="1.5" d="M6.84428571 17.6511429L6.84428571 8.18285714C6.84428571 7.52958318 7.3738689 7 8.02714286 7 8.68041682 7 9.21 7.52958318 9.21 8.18285714 9.21 10.1013703 9.21 11.5402551 9.21 12.4995117M6.90342857 22.3234286L1.414 16.5865714C1.27079182 16.3045752 1.24648065 15.9769728 1.34649586 15.6769272 1.44651107 15.3768816 1.66252146 15.1293863 1.94628571 14.9897143 2.22828189 14.8465061 2.55588431 14.8221949 2.85592995 14.9222101 3.15597559 15.0222254 3.24082113 14.9678227 3.38049316 15.2515869L6.84428571 17.6511429M9.21 12.9142857C9.21 12.2610118 9.73958318 11.7314286 10.3928571 11.7314286 11.0461311 11.7314286 11.5757143 12.2610118 11.5757143 12.9142857M11.6052857 12.9142857C11.6052857 12.2610118 12.1052975 12.3228571 12.7585714 12.3228571 13.4118454 12.3228571 13.9414286 12.8524403 13.9414286 13.5057143M6.90342857 22.3234286C7.4473846 23.2058356 8.40997595 23.7430958 9.44657143 23.7428593L13.35 23.7428593C14.9831849 23.7428593 16.3071429 22.4188992 16.3071429 20.7857143L16.3071429 14.6885714C16.3071429 14.0352975 15.3476099 13.2687988 14.6943359 13.2687988" transform="translate(2)"/>
    </g>
    <path stroke="currentColor" stroke-linecap="round" stroke-linejoin="round" stroke-width="2" d="M20,11 C20,8.790861 18.209139,7 16,7 C13.790861,7 12,8.790861 12,11"/>
  </g>
</svg>

<svg viewBox="0 0 36 36" xmlns="http://www.w3.org/2000/svg">
<g fill="none">
<g transform="translate(6 4)">
<rect y="2" width="24" height="24"/>
<path d="m11.664 10.639c1.3787-0.63134 2.3364-2.0232 2.3364-3.6387 0-2.2091-1.7909-4-4-4s-4 1.7909-4 4c0 1.6276 0.97212 3.0282 2.3674 3.6528" opacity=".7" stroke="currentColor" stroke-linecap="round" stroke-linejoin="round" stroke-width="2"/>
<path transform="translate(2)" d="m6.8443 17.651v-9.4683c0-0.65327 0.52958-1.1829 1.1829-1.1829s1.1829 0.52958 1.1829 1.1829v4.3167m-2.3066 9.8239-5.4894-5.7369c-0.14321-0.282-0.16752-0.6096-0.067504-0.90964s0.31603-0.54754 0.59979-0.68721c0.282-0.14321 0.6096-0.16752 0.90964-0.067504 0.30005 0.10002 0.38489 0.045613 0.52456 0.32938l3.4638 2.3996m2.3657-4.7369c0-0.65327 0.52958-1.1829 1.1829-1.1829 0.65327 0 1.1829 0.52958 1.1829 1.1829m0.029571 0c0-0.65327 0.50001-0.59143 1.1533-0.59143 0.65327 0 1.1829 0.52958 1.1829 1.1829m-7.038 8.8177c0.54396 0.88241 1.5065 1.4197 2.5431 1.4194h3.9034c1.6332 0 2.9571-1.324 2.9571-2.9571v-6.0971c0-0.65327-0.95953-1.4198-1.6128-1.4198" stroke="currentColor" stroke-linecap="round" stroke-linejoin="round" stroke-width="1.5"/>
</g>
<path d="m20 11c0-2.2091-1.7909-4-4-4s-4 1.7909-4 4" stroke="currentColor" stroke-linecap="round" stroke-linejoin="round" stroke-width="2"/>
</g>
</svg>
